Newaita-dark/actions/scalable/sort-name.svg

<?xml version="1.0" encoding="UTF-8"?>
<svg xmlns="http://www.w3.org/2000/svg" xmlns:xlink="http://www.w3.org/1999/xlink" width="512pt" height="512pt" viewBox="0 0 512 512" version="1.1">
<g id="surface1">
<path style=" stroke:none;fill-rule:nonzero;fill:rgb(74.117649%,74.117649%,74.117649%);fill-opacity:1;" d="M 250.386719 67.507812 L 458.765625 67.507812 C 462.601562 67.507812 465.710938 72.246094 465.710938 78.089844 L 465.710938 88.675781 C 465.710938 94.519531 462.601562 99.257812 458.765625 99.257812 L 250.386719 99.257812 C 246.550781 99.257812 243.441406 94.519531 243.441406 88.675781 L 243.441406 78.089844 C 243.441406 72.246094 246.550781 67.507812 250.386719 67.507812 Z M 250.386719 67.507812 "/>
<path style=" stroke:none;fill-rule:nonzero;fill:rgb(74.117649%,74.117649%,74.117649%);fill-opacity:1;" d="M 250.386719 183.933594 L 458.765625 183.933594 C 462.601562 183.933594 465.710938 188.671875 465.710938 194.519531 L 465.710938 205.101562 C 465.710938 210.949219 462.601562 215.6875 458.765625 215.6875 L 250.386719 215.6875 C 246.550781 215.6875 243.441406 210.949219 243.441406 205.101562 L 243.441406 194.519531 C 243.441406 188.671875 246.550781 183.933594 250.386719 183.933594 Z M 250.386719 183.933594 "/>
<path style=" stroke:none;fill-rule:nonzero;fill:rgb(74.117649%,74.117649%,74.117649%);fill-opacity:1;" d="M 250.386719 416.789062 L 458.765625 416.789062 C 462.601562 416.789062 465.710938 421.527344 465.710938 427.375 L 465.710938 437.957031 C 465.710938 443.804688 462.601562 448.542969 458.765625 448.542969 L 250.386719 448.542969 C 246.550781 448.542969 243.441406 443.804688 243.441406 437.957031 L 243.441406 427.375 C 243.441406 421.527344 246.550781 416.789062 250.386719 416.789062 Z M 250.386719 416.789062 "/>
<path style=" stroke:none;fill-rule:nonzero;fill:rgb(74.117649%,74.117649%,74.117649%);fill-opacity:1;" d="M 250.386719 300.363281 L 458.765625 300.363281 C 462.601562 300.363281 465.710938 305.101562 465.710938 310.945312 L 465.710938 321.53125 C 465.710938 327.375 462.601562 332.113281 458.765625 332.113281 L 250.386719 332.113281 C 246.550781 332.113281 243.441406 327.375 243.441406 321.53125 L 243.441406 310.945312 C 243.441406 305.101562 246.550781 300.363281 250.386719 300.363281 Z M 250.386719 300.363281 "/>
<path style=" stroke:none;fill-rule:nonzero;fill:rgb(47.058824%,56.470591%,61.176473%);fill-opacity:1;" d="M 127.011719 25.167969 C 80.101562 25.167969 42.335938 58.214844 42.335938 99.257812 L 42.335938 215.6875 C 42.335938 227.414062 51.777344 236.855469 63.507812 236.855469 C 75.234375 236.855469 84.675781 227.414062 84.675781 215.6875 L 84.675781 183.933594 C 84.675781 172.207031 94.117188 162.765625 105.84375 162.765625 L 148.179688 162.765625 C 159.910156 162.765625 169.347656 172.207031 169.347656 183.933594 L 169.347656 215.6875 C 169.347656 227.414062 178.789062 236.855469 190.519531 236.855469 C 202.246094 236.855469 211.6875 227.414062 211.6875 215.6875 L 211.6875 99.257812 C 211.6875 58.214844 173.921875 25.167969 127.011719 25.167969 Z M 127.011719 67.507812 C 142.886719 67.507812 169.695312 75.609375 169.347656 93.96875 L 169.347656 109.84375 C 169.347656 121.570312 159.910156 131.011719 148.179688 131.011719 L 105.84375 131.011719 C 94.117188 131.011719 84.675781 121.570312 84.675781 109.84375 L 84.675781 93.96875 C 84.675781 75.445312 111.136719 67.507812 127.011719 67.507812 Z M 127.011719 67.507812 "/>
<path style=" stroke:none;fill-rule:nonzero;fill:rgb(47.058824%,56.470591%,61.176473%);fill-opacity:1;" d="M 190.4375 278.855469 C 189.210938 278.863281 187.988281 278.976562 186.785156 279.195312 L 63.507812 279.195312 C 51.777344 279.195312 42.335938 288.632812 42.335938 300.363281 C 42.335938 312.089844 51.777344 321.53125 63.507812 321.53125 L 148.351562 321.53125 L 50.117188 454.472656 C 46.808594 457.667969 44.539062 461.933594 43.871094 466.726562 C 42.558594 474.347656 45.5 482.390625 52.167969 487.320312 C 57.433594 491.210938 63.871094 492.308594 69.75 490.878906 L 191.839844 490.878906 C 203.570312 490.878906 213.011719 481.4375 213.011719 469.710938 C 213.011719 457.984375 203.570312 448.542969 191.839844 448.542969 L 107.140625 448.542969 L 205.785156 315.046875 C 208.851562 311.855469 210.929688 307.703125 211.515625 303.070312 C 211.515625 303.070312 211.515625 303.066406 211.515625 303.0625 C 212.597656 295.605469 209.636719 287.828125 203.128906 283.019531 C 199.296875 280.1875 194.84375 278.832031 190.4375 278.855469 Z M 190.4375 278.855469 "/>
</g>
</svg>

<svg xmlns="http://www.w3.org/2000/svg" width="512pt" height="512pt" viewBox="0 0 512 512"><path d="M250.387 67.508h208.379c3.836 0 6.945 4.738 6.945 10.582v10.586c0 5.844-3.11 10.582-6.945 10.582h-208.38c-3.835 0-6.945-4.738-6.945-10.582V78.09c0-5.844 3.11-10.582 6.946-10.582zm0 0M250.387 183.934h208.379c3.836 0 6.945 4.738 6.945 10.586v10.582c0 5.847-3.11 10.585-6.945 10.585h-208.38c-3.835 0-6.945-4.738-6.945-10.585V194.52c0-5.848 3.11-10.586 6.946-10.586zm0 0M250.387 416.79h208.379c3.836 0 6.945 4.737 6.945 10.585v10.582c0 5.848-3.11 10.586-6.945 10.586h-208.38c-3.835 0-6.945-4.738-6.945-10.586v-10.582c0-5.848 3.11-10.586 6.946-10.586zm0 0M250.387 300.363h208.379c3.836 0 6.945 4.739 6.945 10.582v10.586c0 5.844-3.11 10.582-6.945 10.582h-208.38c-3.835 0-6.945-4.738-6.945-10.582v-10.586c0-5.843 3.11-10.582 6.946-10.582zm0 0" fill="#bdbdbd"/><path d="M127.012 25.168c-46.91 0-84.676 33.047-84.676 74.09v116.43a21.123 21.123 0 0 0 21.172 21.167 21.122 21.122 0 0 0 21.168-21.167v-31.754a21.122 21.122 0 0 1 21.168-21.168h42.336a21.12 21.12 0 0 1 21.168 21.168v31.754a21.123 21.123 0 0 0 21.172 21.167 21.122 21.122 0 0 0 21.167-21.167V99.257c0-41.043-37.765-74.09-84.675-74.09zm0 42.34c15.875 0 42.683 8.101 42.336 26.46v15.876a21.12 21.12 0 0 1-21.168 21.168h-42.336a21.122 21.122 0 0 1-21.168-21.168V93.969c0-18.524 26.46-26.461 42.336-26.461zm0 0M190.438 278.855c-1.227.008-2.45.122-3.653.34H63.508a21.12 21.12 0 0 0-21.172 21.168 21.123 21.123 0 0 0 21.172 21.168h84.844L50.117 454.473a21.06 21.06 0 0 0-6.246 12.254 21.114 21.114 0 0 0 8.297 20.593 21.095 21.095 0 0 0 17.582 3.559h122.09a21.123 21.123 0 0 0 21.172-21.168 21.123 21.123 0 0 0-21.172-21.168h-84.7l98.645-133.496a21.08 21.08 0 0 0 5.73-11.977v-.007a21.11 21.11 0 0 0-8.386-20.043 21.097 21.097 0 0 0-12.691-4.165zm0 0" fill="#78909c"/></svg>
